icons/media/volume-mute.svg

<svg width="32" height="32" viewBox="0 0 32 32" fill="none" xmlns="http://www.w3.org/2000/svg">
<path fill-rule="evenodd" clip-rule="evenodd" d="M15.8666 3.71973C16.6541 2.93227 18.0005 3.48998 18.0005 4.60361V27.3965C18.0005 28.5101 16.6541 29.0679 15.8666 28.2804L9.58627 22.0001H4.00049C2.89592 22.0001 2.00049 21.1046 2.00049 20.0001V12.0001C2.00049 10.8955 2.89592 10.0001 4.00049 10.0001H9.58627L15.8666 3.71973ZM16.0005 6.41427L11.0005 11.4143C10.6254 11.7894 10.1167 12.0001 9.58627 12.0001H4.00049V20.0001H9.58627C10.1167 20.0001 10.6254 20.2108 11.0005 20.5859L16.0005 25.5859V6.41427ZM27.414 16L30.7069 12.7071L29.2926 11.2929L25.9998 14.5858L22.7069 11.2929L21.2926 12.7071L24.5855 16L21.2926 19.2929L22.7069 20.7071L25.9998 17.4142L29.2926 20.7071L30.7069 19.2929L27.414 16Z" fill="black"/>
</svg>

<svg width="32" height="32" viewBox="0 0 32 32" xmlns="http://www.w3.org/2000/svg">
    <path fill-rule="evenodd" d="M15.867 3.72c.787-.788 2.133-.23 2.133.884v22.793c0 1.113-1.346 1.67-2.133.883L9.587 22H4a2 2 0 01-2-2v-8a2 2 0 012-2h5.586l6.28-6.28zM16 6.414l-5 5A2 2 0 019.587 12H4v8h5.586a2 2 0 011.415.586l5 5V6.414zM27.414 16l3.293-3.293-1.414-1.414L26 14.586l-3.293-3.293-1.414 1.414L24.586 16l-3.293 3.293 1.414 1.414L26 17.414l3.293 3.293 1.414-1.414L27.414 16z"/>
</svg>
